X:358
T:
R:polska
S:Ur von Baumgartens samling, Visby.
O:Gotland, Visby
M:3/4
L:1/16
K:G
GDGA B2BA A2G2|BAcB d2dc c2B2|dcBc dcBc d2g2|edcB[G,4G4B4] [D4F4A4]::
DcAc DcAc DcAc|BABc d2dc c2B2|DcAc DcAc DcAc|BABc d2dc c2B2|
G2e2 e2dc cBAG|G2d2 d2cB BAGF|GDEF GABc defg|dcBA A4 G4:|

